ERK
CUT[GESELLEN STIMMET MIT MIR EIN]
REG[Europa, Mitteleuropa, Deutschland, Ober - Rhein]
TRD[]
FKT[]
SIG[E1622]
KEY[E1622   08  G 2/4]
MEL[-5  1122  331
    2  3344  553
    5  6543  2_0
    3  5566  442
    3  4455  331
    2  3_2_  165
    4  3_2_  1_0
    3  5566  442
    3  4455  331
    2  3_2_  165
    4  3_2_  1_0 //]
BEM[]
MEL_SEM[5 0 2 0 2 0 -4 2 2 0 1 0 2 0 -3 3 2 -2 -2 -1 -2 2 3 0 2 0 -4 0 -3 2 1 0 2 0 -3 0 -4 2 2 -2 -2 9 -2 -2 -1 -2 -2 4 3 0 2 0 -4 0 -3 2 1 0 2 0 -3 0 -4 2 2 -2 -2 9 -2 -2 -1 -2 -2]
MEL_RAW[-5  1122  331
    2  3344  553
    5  6543  20
    3  5566  442
    3  4455  331
    2  32  165
    4  32  10
    3  5566  442
    3  4455  331
    2  32  165
    4  32  10]
NO_REP[-51231
    23453
    5654320
    35642
    34531
    232165
    43210
    35642
    34531
    232165
    43210]
RTM[x  xxxx  xxx
    x  xxxx  xxx
    x  xxxx  x_x
    x  xxxx  xxx
    x  xxxx  xxx
    x  x_x_  xxx
    x  x_x_  x_x
    x  xxxx  xxx
    x  xxxx  xxx
    x  x_x_  xxx
    x  x_x_  x_x]
SCL_DEG[-5123456]
SCL_SEM[5 2 2 1 2 2]

